X: 1650
T: The Green Flag
M:C|
L:1/8
B:O'Neill's 1650
N:"collected by F. O'Neill"
K:G
G2 \
| D>GB>G d>GB>G | e>fg>e d>BA>B | G>FG>A B>AB>G | A>BA>F G>FE>D |
| D>GB>G d>GB>G | e>fg>e d>BA>B | G>Bd>g e>cA>F | G2 G2 G2 :|
|: d2 \
| g>be>g d>gB>d | d>Bg>ed>BA>B | GBd>B e>dc>B | A>^G A>B A2 D>C |
| B,>DG>B d2c>B | A>Bc>d e2g>e | d>BG>B A>GF>A | G2 G2 G2 :|


